src/lib/packages/icons/src/assets/filled/comment-clock.svg

<svg width="24" height="24" viewBox="0 0 24 24" fill="none" xmlns="http://www.w3.org/2000/svg">
<path d="M13.354 12.646C13.549 12.841 13.549 13.158 13.354 13.353C13.256 13.451 13.128 13.499 13 13.499C12.872 13.499 12.744 13.45 12.646 13.353L11.646 12.353C11.552 12.259 11.5 12.132 11.5 11.999V10.499C11.5 10.223 11.724 9.99902 12 9.99902C12.276 9.99902 12.5 10.223 12.5 10.499V11.792L13.354 12.646ZM21 12.001C21 17.002 16.97 20.002 12 20.002C10.72 20.002 9.50991 19.802 8.40991 19.422C7.06991 20.852 4.87996 21.0419 3.45996 20.9919C3.02996 20.9819 2.83992 20.432 3.16992 20.152C4.25992 19.272 4.79995 18.172 4.94995 17.212C3.72995 15.892 3 14.121 3 12.001C3 6.99998 7.03 4 12 4C16.97 4 21 6.99998 21 12.001ZM16 12C16 9.791 14.209 8 12 8C9.791 8 8 9.791 8 12C8 14.209 9.791 16 12 16C14.209 16 16 14.209 16 12Z" fill="currentColor"/>
</svg>

<svg xmlns="http://www.w3.org/2000/svg" width="24" height="24" fill="none"><path fill="currentColor" d="M13.354 12.646a.5.5 0 0 1-.708.707l-1-1a.5.5 0 0 1-.146-.354v-1.5a.5.5 0 0 1 1 0v1.293l.854.854ZM21 12.001c0 5.001-4.03 8.001-9 8.001-1.28 0-2.49-.2-3.59-.58-1.34 1.43-3.53 1.62-4.95 1.57-.43-.01-.62-.56-.29-.84 1.09-.88 1.63-1.98 1.78-2.94C3.73 15.892 3 14.121 3 12.001 3 7 7.03 4 12 4s9 3 9 8.001ZM16 12a4 4 0 1 0-8 0 4 4 0 0 0 8 0Z"/></svg>
